X:2379
T:Yn Bollan Bane
T:The White Wort 
C:P Cain, Baldwin
C:Traditional
O:Isle of Man 
Z:A.W.Moore et.al.
N:See also KV280, 378
B:Kiaull Vannin #379 
M:6/8 
L:1/8
Q:200 
K:D 
DDD D2D|D2D D2D|D2A B2A|d2e f2e|d2c d3|d2e f2e| 
d2c d2A|A2B A2G|F2E DDD|D2D DDD|D2D D2A|B2A GFE|D3 D3|| 
M:2/4 
Q:70 
d>ddB|cdec|dcBA|d2 d2:|DDFD|FDFD|FDFA|d2 d2:| 
f>fe|f>gfe|fefd|cABc|d2 d2|| 

